inputs/getiplay-bg.svg

<?xml version="1.0" encoding="UTF-8" standalone="no"?>
<!-- Created with Inkscape (http://www.inkscape.org/) -->

<svg
   width="565.21863"
   height="160.16223"
   viewBox="0 0 529.89244 150.1521"
   id="svg2"
   version="1.1"
   inkscape:version="1.1.2 (0a00cf5339, 2022-02-04)"
   sodipodi:docname="getiplay-bg.svg"
   inkscape:export-filename="/home/flypig/Documents/Development/sailfish/getiplay/qml/images/getiplay-bg.png"
   inkscape:export-xdpi="90"
   inkscape:export-ydpi="90"
   xmlns:inkscape="http://www.inkscape.org/namespaces/inkscape"
   xmlns:sodipodi="http://sodipodi.sourceforge.net/DTD/sodipodi-0.dtd"
   xmlns:xlink="http://www.w3.org/1999/xlink"
   xmlns="http://www.w3.org/2000/svg"
   xmlns:svg="http://www.w3.org/2000/svg"
   xmlns:rdf="http://www.w3.org/1999/02/22-rdf-syntax-ns#"
   xmlns:cc="http://creativecommons.org/ns#"
   xmlns:dc="http://purl.org/dc/elements/1.1/">
  <defs
     id="defs4">
    <linearGradient
       x1="0"
       y1="0"
       x2="1"
       y2="0"
       gradientUnits="userSpaceOnUse"
       gradientTransform="matrix(105.70775,-105.70775,105.70775,105.70775,120.89608,611.46604)"
       spreadMethod="pad"
       id="linearGradient24">
      <stop
         style="stop-opacity:1;stop-color:#eb424a"
         offset="0"
         id="stop26" />
      <stop
         style="stop-opacity:1;stop-color:#ff7500"
         offset="1"
         id="stop28" />
    </linearGradient>
    <linearGradient
       x1="0"
       y1="0"
       x2="1"
       y2="0"
       gradientUnits="userSpaceOnUse"
       gradientTransform="matrix(105.70775,-105.70775,105.70775,105.70775,162.32465,622.89461)"
       spreadMethod="pad"
       id="linearGradient24-5">
      <stop
         style="stop-opacity:1;stop-color:#eb424a"
         offset="0"
         id="stop26-4" />
      <stop
         style="stop-opacity:1;stop-color:#ff7500"
         offset="1"
         id="stop28-2" />
    </linearGradient>
    <clipPath
       clipPathUnits="userSpaceOnUse"
       id="clipPath16">
      <path
         d="M 0.301,43 C 0.301,42.592 0.3,1.723 0.3,1.723 v 0 C 0.3,0.937 0.937,0.3 1.723,0.3 v 0 h 82.554 c 0.786,0 1.423,0.637 1.423,1.423 v 0 V 43 C 85.7,66.582 66.583,85.7 43,85.7 v 0 C 19.417,85.7 0.301,66.582 0.301,43"
         id="path18"
         inkscape:connector-curvature="0" />
    </clipPath>
    <linearGradient
       x1="0"
       y1="0"
       x2="0.99507397"
       y2="0"
       gradientUnits="userSpaceOnUse"
       gradientTransform="matrix(-72.47644,72.47644,72.47644,72.47644,79.238319,-5.327878)"
       spreadMethod="pad"
       id="linearGradient24-6"
       xlink:href="#linearGradient24-5">
      <stop
         style="stop-opacity:1;stop-color:#ffe6f4"
         offset="0"
         id="stop26-3" />
      <stop
         style="stop-opacity:1;stop-color:#ffb3dd"
         offset="1"
         id="stop28-9" />
    </linearGradient>
  </defs>
  <sodipodi:namedview
     id="base"
     pagecolor="#ffffff"
     bordercolor="#666666"
     borderopacity="1.0"
     inkscape:pageopacity="0.0"
     inkscape:pageshadow="2"
     inkscape:zoom="2.9391944"
     inkscape:cx="269.46159"
     inkscape:cy="42.358546"
     inkscape:document-units="px"
     inkscape:current-layer="g8104"
     showgrid="true"
     inkscape:snap-grids="true"
     showguides="true"
     inkscape:snap-page="true"
     inkscape:snap-others="true"
     inkscape:snap-global="true"
     inkscape:snap-bbox="false"
     inkscape:window-width="3456"
     inkscape:window-height="2089"
     inkscape:window-x="0"
     inkscape:window-y="34"
     inkscape:window-maximized="1"
     units="px"
     fit-margin-top="0"
     fit-margin-left="0"
     fit-margin-right="0"
     fit-margin-bottom="0"
     inkscape:pagecheckerboard="0">
    <inkscape:grid
       type="xygrid"
       id="grid4163"
       dotted="false"
       snapvisiblegridlinesonly="true"
       originx="-73.105394"
       originy="-575.1434" />
  </sodipodi:namedview>
  <metadata
     id="metadata7">
    <rdf:RDF>
      <cc:Work
         rdf:about="">
        <dc:format>image/svg+xml</dc:format>
        <dc:type
           rdf:resource="http://purl.org/dc/dcmitype/StillImage" />
      </cc:Work>
    </rdf:RDF>
  </metadata>
  <g
     inkscape:label="Layer 1"
     inkscape:groupmode="layer"
     id="layer1"
     transform="translate(-73.105405,-327.06668)">
    <g
       id="g8104">
      <path
         style="color:#000000;clip-rule:nonzero;display:inline;overflow:visible;visibility:visible;opacity:0.25;isolation:auto;mix-blend-mode:normal;color-interpolation:sRGB;color-interpolation-filters:linearRGB;solid-color:#000000;solid-opacity:1;fill:#ff269b;fill-opacity:1;fill-rule:nonzero;stroke:none;stroke-width:0.474;stroke-linecap:butt;stroke-linejoin:miter;stroke-miterlimit:4;stroke-dasharray:none;stroke-dashoffset:0;stroke-opacity:1;marker:none;color-rendering:auto;image-rendering:auto;shape-rendering:auto;text-rendering:auto;enable-background:accumulate"
         d="M 60.132812,0 C 26.921874,6.2e-4 -4.58e-4,26.923826 0,60.134766 c 6.1672848e-4,33.08831 26.758502,59.923914 59.800781,60.121094 0.130368,0.0113 0.255289,0.0391 0.388672,0.0391 h 20.490235 c 2.492998,0 4.5,-2.007 4.5,-4.5 V 51.628906 c 0,-0.06086 -0.01521,-0.11748 -0.01758,-0.177734 V 41.113281 h -29.46875 v 10.476563 c -0.0078,16.996084 -0.0039,34.00222 -0.0039,51.001956 -22.702396,-2.473 -37.103837,-23.528808 -37.103515,-42.710941 3.08e-4,-18.417396 14.42401,-39.572584 37.130859,-42.03125 v 0.04883 10.990234 h 29.441406 v -10.71875 c 0.0055,-0.09171 0.02734,-0.178335 0.02734,-0.271484 V 4.5 c 0,-2.493 -2.007,-4.5 -4.5,-4.5 h -20.46875 c -0.01807,0 -0.03471,0.00564897 -0.05273,0.00585938 V 0.00195313 Z M 226.16602,4 v 21.359375 h 25.35742 V 4 Z m 123.79882,0 v 21.322266 c -1.63606,-2.794647 -3.70217,-5.273939 -6.21875,-7.423828 C 336.55353,11.705144 326.2094,8.609375 312.7168,8.609375 H 267.43555 V 117.82031 h 27.32617 V 79.929688 h 17.95508 c 13.4926,0 23.83673,-3.072271 31.02929,-9.216797 2.51659,-2.166956 4.58269,-4.664848 6.21875,-7.476563 v 54.583982 h 25.35743 v -9.10937 c 0.92984,1.36466 2.00248,2.64618 3.22656,3.84179 5.14504,4.92538 11.83947,7.38868 20.08203,7.38868 6.09005,0 11.26114,-1.122 15.51367,-3.36524 4.25254,-2.292 8.08552,-5.9243 11.49805,-10.89844 v 12.14258 h 25.59375 V 71.078125 c 0,-3.085084 -0.18185,-5.960119 -0.53321,-8.640625 l 24.37891,58.52734 -0.70898,2.26758 c -1.10251,3.65746 -2.65147,6.1932 -4.64649,7.60742 -1.94251,1.41422 -5.06606,2.12305 -9.37109,2.12305 h -7.95313 v 17.18945 h 14.72657 c 7.29755,0 13.17613,-1.82887 17.63867,-5.48632 4.46253,-3.6087 8.37435,-9.97253 11.73437,-19.0918 l 33.39063,-89.681642 h -25.35742 l -18.11328,55.59375 -21.3418,-55.59375 h -25.43555 l 3.38281,8.121094 c -0.42514,-0.456626 -0.86211,-0.899789 -1.32031,-1.31836 -6.35255,-5.851926 -16.69473,-8.777343 -31.02734,-8.777343 -5.46004,0 -10.94645,0.366163 -16.45899,1.097656 -5.46004,0.68272 -10.92082,1.706812 -16.38086,3.072266 v 19.96875 c 4.04253,-2.24324 8.39973,-3.925262 13.07227,-5.046875 4.67254,-1.12162 9.73918,-1.681641 15.19922,-1.681641 6.66755,0 11.57653,0.975141 14.72656,2.925781 3.20253,1.90188 4.80469,4.925193 4.80469,9.070313 v 2.048828 h -14.96289 c -13.70261,0 -23.75707,2.242036 -30.16211,6.728515 -2.0671,1.447916 -3.79533,3.167208 -5.19531,5.148438 V 4 Z m -175.05468,8.630859 v 23.261719 h -12.59961 v 7.705078 c -7.20278,-6.446056 -16.49396,-9.679687 -27.88672,-9.679687 -13.7026,0 -24.4665,3.828095 -32.28906,11.484375 -7.822564,7.65628 -11.732426,18.165424 -11.732426,31.527344 0,13.605746 3.963058,24.187342 11.890626,31.746092 7.98006,7.50998 19.16177,11.26563 33.54687,11.26563 5.98505,0 11.97004,-0.60898 17.95508,-1.82813 6.03755,-1.17039 12.05011,-2.9268 18.03516,-5.26758 V 92.65625 c -5.88004,3.316093 -11.62854,5.802884 -17.2461,7.46094 -5.56504,1.60928 -11.02581,2.41406 -16.38086,2.41406 -6.61505,0 -11.78614,-1.53516 -15.51367,-4.607422 -3.67502,-3.072267 -5.8014,-7.681645 -6.3789,-13.826172 h 58.59961 v 5.267578 c 0,10.33842 2.10074,17.677396 6.30078,22.017576 4.20003,4.29142 11.31421,6.4375 21.34179,6.4375 h 21.73438 V 99.09375 h -13.07227 c -4.35753,0 -7.27218,-0.657929 -8.74218,-1.974609 -1.41752,-1.365454 -2.125,-3.950153 -2.125,-7.753907 V 54.619141 h 25.81836 v 63.201169 h 25.35742 V 35.892578 H 226.49219 200.34766 V 12.630859 Z m 119.85156,16.386719 h 15.04297 c 5.30254,0 9.39568,1.315846 12.2832,3.949219 2.88753,2.633367 4.33203,6.389012 4.33203,11.265625 0,4.876613 -1.4445,8.655757 -4.33203,11.33789 -2.88752,2.633374 -6.98066,3.949219 -12.2832,3.949219 h -15.04297 z m -160.4961,22.310547 c 4.56755,0 8.24288,1.535162 11.0254,4.607422 2.83502,3.0235 4.25195,7.021947 4.25195,11.996094 h -32.99609 c 0.78749,-5.364274 2.70302,-9.460623 5.74804,-12.289063 3.09752,-2.877193 7.08816,-4.314453 11.9707,-4.314453 z m 36.55665,3.291016 h 4.08789 v 12.80664 c -0.75233,-4.692771 -2.12185,-8.95744 -4.08789,-12.80664 z m 241.66796,26.333984 h 13.15235 v 2.998047 c 0,5.315507 -1.62779,9.754526 -4.88281,13.314453 -3.25502,3.511165 -7.27129,5.265625 -12.04883,5.265625 -3.83253,0 -6.826,-0.92618 -8.97852,-2.779297 -2.15252,-1.90188 -3.22851,-4.510078 -3.22851,-7.826172 0,-3.608693 1.3381,-6.340246 4.01562,-8.193359 2.67753,-1.853113 6.66817,-2.779297 11.9707,-2.779297 z"
         transform="translate(73.105374,327.06668)"
         id="path4207" />
    </g>
  </g>
</svg>

<?xml version="1.0" encoding="UTF-8" standalone="no"?>
<!-- Created with Inkscape (http://www.inkscape.org/) -->

<svg
   xmlns:dc="http://purl.org/dc/elements/1.1/"
   xmlns:cc="http://creativecommons.org/ns#"
   xmlns:rdf="http://www.w3.org/1999/02/22-rdf-syntax-ns#"
   xmlns:svg="http://www.w3.org/2000/svg"
   xmlns="http://www.w3.org/2000/svg"
   xmlns:xlink="http://www.w3.org/1999/xlink"
   xmlns:sodipodi="http://sodipodi.sourceforge.net/DTD/sodipodi-0.dtd"
   xmlns:inkscape="http://www.inkscape.org/namespaces/inkscape"
   width="5.8876944in"
   height="1.6683567in"
   viewBox="0 0 529.89244 150.1521"
   id="svg2"
   version="1.1"
   inkscape:version="0.91 r13725"
   sodipodi:docname="getiplay-bg.svg"
   inkscape:export-filename="/home/flypig/Documents/Development/sailfish/getiplay/qml/images/getiplay-bg.png"
   inkscape:export-xdpi="90"
   inkscape:export-ydpi="90">
  <defs
     id="defs4">
    <linearGradient
       x1="0"
       y1="0"
       x2="1"
       y2="0"
       gradientUnits="userSpaceOnUse"
       gradientTransform="matrix(105.70775,-105.70775,105.70775,105.70775,120.89608,611.46604)"
       spreadMethod="pad"
       id="linearGradient24">
      <stop
         style="stop-opacity:1;stop-color:#eb424a"
         offset="0"
         id="stop26" />
      <stop
         style="stop-opacity:1;stop-color:#ff7500"
         offset="1"
         id="stop28" />
    </linearGradient>
    <linearGradient
       x1="0"
       y1="0"
       x2="1"
       y2="0"
       gradientUnits="userSpaceOnUse"
       gradientTransform="matrix(105.70775,-105.70775,105.70775,105.70775,162.32465,622.89461)"
       spreadMethod="pad"
       id="linearGradient24-5">
      <stop
         style="stop-opacity:1;stop-color:#eb424a"
         offset="0"
         id="stop26-4" />
      <stop
         style="stop-opacity:1;stop-color:#ff7500"
         offset="1"
         id="stop28-2" />
    </linearGradient>
    <clipPath
       clipPathUnits="userSpaceOnUse"
       id="clipPath16">
      <path
         d="M 0.301,43 C 0.301,42.592 0.3,1.723 0.3,1.723 l 0,0 C 0.3,0.937 0.937,0.3 1.723,0.3 l 0,0 82.554,0 c 0.786,0 1.423,0.637 1.423,1.423 l 0,0 0,41.277 C 85.7,66.582 66.583,85.7 43,85.7 l 0,0 C 19.417,85.7 0.301,66.582 0.301,43"
         id="path18"
         inkscape:connector-curvature="0" />
    </clipPath>
    <linearGradient
       x1="0"
       y1="0"
       x2="0.99507397"
       y2="0"
       gradientUnits="userSpaceOnUse"
       gradientTransform="matrix(-72.47644,72.47644,72.47644,72.47644,79.238319,-5.327878)"
       spreadMethod="pad"
       id="linearGradient24-6"
       xlink:href="#linearGradient24-5">
      <stop
         style="stop-opacity:1;stop-color:#ffe6f4"
         offset="0"
         id="stop26-3" />
      <stop
         style="stop-opacity:1;stop-color:#ffb3dd"
         offset="1"
         id="stop28-9" />
    </linearGradient>
  </defs>
  <sodipodi:namedview
     id="base"
     pagecolor="#ffffff"
     bordercolor="#666666"
     borderopacity="1.0"
     inkscape:pageopacity="0.0"
     inkscape:pageshadow="2"
     inkscape:zoom="2.9391944"
     inkscape:cx="269.38054"
     inkscape:cy="42.47893"
     inkscape:document-units="px"
     inkscape:current-layer="g8104"
     showgrid="true"
     inkscape:snap-grids="true"
     showguides="true"
     inkscape:snap-page="true"
     inkscape:snap-others="true"
     inkscape:snap-global="true"
     inkscape:snap-bbox="false"
     inkscape:window-width="3200"
     inkscape:window-height="1773"
     inkscape:window-x="0"
     inkscape:window-y="27"
     inkscape:window-maximized="1"
     units="ft"
     fit-margin-top="0"
     fit-margin-left="0"
     fit-margin-right="0"
     fit-margin-bottom="0">
    <inkscape:grid
       type="xygrid"
       id="grid4163"
       dotted="false"
       snapvisiblegridlinesonly="true"
       originx="-73.105394"
       originy="-575.1434" />
  </sodipodi:namedview>
  <metadata
     id="metadata7">
    <rdf:RDF>
      <cc:Work
         rdf:about="">
        <dc:format>image/svg+xml</dc:format>
        <dc:type
           rdf:resource="http://purl.org/dc/dcmitype/StillImage" />
        <dc:title />
      </cc:Work>
    </rdf:RDF>
  </metadata>
  <g
     inkscape:label="Layer 1"
     inkscape:groupmode="layer"
     id="layer1"
     transform="translate(-73.105405,-327.06668)">
    <g
       id="g8104">
      <path
         style="color:#000000;clip-rule:nonzero;display:inline;overflow:visible;visibility:visible;opacity:0.25;isolation:auto;mix-blend-mode:normal;color-interpolation:sRGB;color-interpolation-filters:linearRGB;solid-color:#000000;solid-opacity:1;fill:#ff269b;fill-opacity:1;fill-rule:nonzero;stroke:none;stroke-width:0.47400001;stroke-linecap:butt;stroke-linejoin:miter;stroke-miterlimit:4;stroke-dasharray:none;stroke-dashoffset:0;stroke-opacity:1;marker:none;color-rendering:auto;image-rendering:auto;shape-rendering:auto;text-rendering:auto;enable-background:accumulate"
         d="M 60.132812 0 C 26.921874 0.00062 -0.000458 26.923826 0 60.134766 C 0.00061672848 93.223076 26.758502 120.05868 59.800781 120.25586 C 59.931149 120.26716 60.05607 120.29492 60.189453 120.29492 L 80.679688 120.29492 C 83.172686 120.29492 85.179688 118.28792 85.179688 115.79492 L 85.179688 51.628906 C 85.179688 51.568046 85.164479 51.511426 85.162109 51.451172 L 85.162109 41.113281 L 55.693359 41.113281 L 55.693359 51.589844 C 55.685559 68.585928 55.689453 85.592064 55.689453 102.5918 C 32.987057 100.1188 18.585616 79.062992 18.585938 59.880859 C 18.586246 41.463463 33.009948 20.308275 55.716797 17.849609 L 55.716797 17.898438 L 55.716797 28.888672 L 85.158203 28.888672 L 85.158203 18.169922 C 85.163703 18.078212 85.185547 17.991587 85.185547 17.898438 L 85.185547 4.5 C 85.185547 2.007 83.178547 0 80.685547 0 L 60.216797 0 C 60.198727 0 60.182082 0.005648965 60.164062 0.005859375 L 60.164062 0.001953125 L 60.132812 0 z M 226.16602 4 L 226.16602 25.359375 L 251.52344 25.359375 L 251.52344 4 L 226.16602 4 z M 349.96484 4 L 349.96484 25.322266 C 348.32878 22.527619 346.26267 20.048327 343.74609 17.898438 C 336.55353 11.705144 326.2094 8.609375 312.7168 8.609375 L 267.43555 8.609375 L 267.43555 117.82031 L 294.76172 117.82031 L 294.76172 79.929688 L 312.7168 79.929688 C 326.2094 79.929688 336.55353 76.857417 343.74609 70.712891 C 346.26268 68.545935 348.32878 66.048043 349.96484 63.236328 L 349.96484 117.82031 L 375.32227 117.82031 L 375.32227 108.71094 C 376.25211 110.0756 377.32475 111.35712 378.54883 112.55273 C 383.69387 117.47811 390.3883 119.94141 398.63086 119.94141 C 404.72091 119.94141 409.892 118.81941 414.14453 116.57617 C 418.39707 114.28417 422.23005 110.65187 425.64258 105.67773 L 425.64258 117.82031 L 451.23633 117.82031 L 451.23633 71.078125 C 451.23633 67.993041 451.05448 65.118006 450.70312 62.4375 L 475.08203 120.96484 L 474.37305 123.23242 C 473.27054 126.88988 471.72158 129.42562 469.72656 130.83984 C 467.78405 132.25406 464.6605 132.96289 460.35547 132.96289 L 452.40234 132.96289 L 452.40234 150.15234 L 467.12891 150.15234 C 474.42646 150.15234 480.30504 148.32347 484.76758 144.66602 C 489.23011 141.05732 493.14193 134.69349 496.50195 125.57422 L 529.89258 35.892578 L 504.53516 35.892578 L 486.42188 91.486328 L 465.08008 35.892578 L 439.64453 35.892578 L 443.02734 44.013672 C 442.6022 43.557046 442.16523 43.113883 441.70703 42.695312 C 435.35448 36.843386 425.0123 33.917969 410.67969 33.917969 C 405.21965 33.917969 399.73324 34.284132 394.2207 35.015625 C 388.76066 35.698345 383.29988 36.722437 377.83984 38.087891 L 377.83984 58.056641 C 381.88237 55.813401 386.23957 54.131379 390.91211 53.009766 C 395.58465 51.888146 400.65129 51.328125 406.11133 51.328125 C 412.77888 51.328125 417.68786 52.303266 420.83789 54.253906 C 424.04042 56.155786 425.64258 59.179099 425.64258 63.324219 L 425.64258 65.373047 L 410.67969 65.373047 C 396.97708 65.373047 386.92262 67.615083 380.51758 72.101562 C 378.45048 73.549478 376.72225 75.26877 375.32227 77.25 L 375.32227 4 L 349.96484 4 z M 174.91016 12.630859 L 174.91016 35.892578 L 162.31055 35.892578 L 162.31055 43.597656 C 155.10777 37.1516 145.81659 33.917969 134.42383 33.917969 C 120.72123 33.917969 109.95733 37.746064 102.13477 45.402344 C 94.312206 53.058624 90.402344 63.567768 90.402344 76.929688 C 90.402344 90.535434 94.365402 101.11703 102.29297 108.67578 C 110.27303 116.18576 121.45474 119.94141 135.83984 119.94141 C 141.82489 119.94141 147.80988 119.33243 153.79492 118.11328 C 159.83247 116.94289 165.84503 115.18648 171.83008 112.8457 L 171.83008 92.65625 C 165.95004 95.972343 160.20154 98.459134 154.58398 100.11719 C 149.01894 101.72647 143.55817 102.53125 138.20312 102.53125 C 131.58807 102.53125 126.41698 100.99609 122.68945 97.923828 C 119.01443 94.851561 116.88805 90.242183 116.31055 84.097656 L 174.91016 84.097656 L 174.91016 89.365234 C 174.91016 99.703654 177.0109 107.04263 181.21094 111.38281 C 185.41097 115.67423 192.52515 117.82031 202.55273 117.82031 L 224.28711 117.82031 L 224.28711 99.09375 L 211.21484 99.09375 C 206.85731 99.09375 203.94266 98.435821 202.47266 97.119141 C 201.05514 95.753687 200.34766 93.168988 200.34766 89.365234 L 200.34766 54.619141 L 226.16602 54.619141 L 226.16602 117.82031 L 251.52344 117.82031 L 251.52344 35.892578 L 226.49219 35.892578 L 200.34766 35.892578 L 200.34766 12.630859 L 174.91016 12.630859 z M 294.76172 29.017578 L 309.80469 29.017578 C 315.10723 29.017578 319.20037 30.333424 322.08789 32.966797 C 324.97542 35.600164 326.41992 39.355809 326.41992 44.232422 C 326.41992 49.109035 324.97542 52.888179 322.08789 55.570312 C 319.20037 58.203686 315.10723 59.519531 309.80469 59.519531 L 294.76172 59.519531 L 294.76172 29.017578 z M 134.26562 51.328125 C 138.83317 51.328125 142.5085 52.863287 145.29102 55.935547 C 148.12604 58.959047 149.54297 62.957494 149.54297 67.931641 L 116.54688 67.931641 C 117.33437 62.567367 119.2499 58.471018 122.29492 55.642578 C 125.39244 52.765385 129.38308 51.328125 134.26562 51.328125 z M 170.82227 54.619141 L 174.91016 54.619141 L 174.91016 67.425781 C 174.15783 62.73301 172.78831 58.468341 170.82227 54.619141 z M 412.49023 80.953125 L 425.64258 80.953125 L 425.64258 83.951172 C 425.64258 89.266679 424.01479 93.705698 420.75977 97.265625 C 417.50475 100.77679 413.48848 102.53125 408.71094 102.53125 C 404.87841 102.53125 401.88494 101.60507 399.73242 99.751953 C 397.5799 97.850073 396.50391 95.241875 396.50391 91.925781 C 396.50391 88.317088 397.84201 85.585535 400.51953 83.732422 C 403.19706 81.879309 407.1877 80.953125 412.49023 80.953125 z "
         transform="translate(73.105374,327.06668)"
         id="path4207" />
    </g>
  </g>
</svg>
